X:1
T:Title
%%score { ( 1 3 ) | ( 2 4 ) }
L:1/8
M:9/8
K:A
V:1 treble nm="Grand Piano"
V:3 treble 
V:2 bass 
V:4 bass 
V:1
 z3 z3[Q:1/4=100] EFG | z3 z3 .c3 | A3 G3 B2 c | [Dd]3- [Dd]2 [Ec] [FB]2 [FA] | c3 B3 c2 d | %5
 e3 c3 ABc | [Fd]3 [DF]3 [Fc]2 [FB] | A3- A2 A GFG | [CA]6 [EG]2 [FA] | [GB]3 [GB]3 [Ge]2 [Bd] | %10
 [Ac]6 [=Ge]2 [Ge] | [Fd]3 [FB]3 GFG |[M:3/4] [CA]6 |] %13
V:2
 z3 z3 E,F,G, | A,3 [A,C]3 [A,,A,][B,,G,][C,A,] | [E,B,D]3 [E,B,D]3 [E,G,E]2 [E,^A,E] | %3
 [B,,B,]3- [B,,B,]2 [C,^A,] [D,B,]2 [^D,C] | A,3 G,3[K:treble] [A,E]2 [A,B,E] | %5
 [A,CA]3 [A,E]3 CD[K:bass][A,E] | [D,A,]3 [D,A,]3 [D,^A,]2 [D,B,] | %7
 [E,CE]3- [E,CE]2 [E,CE] [E,B,D]2 [E,B,D] | [A,,A,]6 [E,B,]2 [E,B,] | [E,E]3 [E,E]3 [E,B,]2 [G,E] | %10
 [A,E]6 [C,A,]2 [C,A,] | [D,A,]3 [D,D]3 [E,B,D]2 [E,B,D] |[M:3/4] [A,,A,]6 |] %13
V:3
 x9 | A3 E3 E-[EB][EA] | x9 | x9 | x9 | x9 | x9 | x9 | x9 | x9 | x9 | x9 |[M:3/4] x6 |] %13
V:4
 x9 | x9 | x9 | x9 | [E,E]6[K:treble] z3 | z3 z3 .A,3[K:bass] | x9 | x9 | x9 | x9 | x9 | x9 | %12
[M:3/4] x6 |] %13

